X: 61
T: No_65_Song_of_Snake_Dance_(a).krn
N: Derived from No_65_Song_of_Snake_Dance_(a).krn
%%abc-version 2.0
%%abcx-abcm2ps-target-version 5.9.1 (29 Sep 2008)
%%abc-creator hum2abc beta
%%abcx-conversion-date 2019/03/15 08:27:55
%%humdrum-veritas 727034861
%%humdrum-veritas-data 3088471659
%%linebreak <none>
%%barnumbers 0
L: 1/8
M: 2/4
%%staves {1 2}
V: 1 clef=bass
V: 2 clef=bass
K: Ab
[V:1] [K:clef=bass][M:2/4]B,/A,/A, A, (A,//F,//) z/ | 
[V:2] [K:clef=bass][M:2/4]z4 | 
[V:1] [M:3/4]B,/A,/A, A, A,//F,3// F,F, | 
[V:2] [M:3/4]z6 | 
[V:1] [M:5/8]F,3z F, ]|:  
[V:2] [M:5/8](3:2:1z15/ ]|:  
[V:1] [M:2/4]CC A,/ z/ C | 
[V:2] [M:2/4]z G,, z G,, | 
[V:1] [M:3/8]B,C/ z/ A, | 
[V:2] [M:3/8]z G,, z | 
[V:1] F,F,C,/ z/ | 
[V:2] G,, z G,, | 
[V:1] [M:5/8]F,F,/ z/ F,G,F, | 
[V:2] [M:5/8]G,, z G,, z G,, | 
[V:1] [M:7/8]F,F,F,2z z C, | 
[V:2] [M:7/8]z G,, z G,, z G,, z | 
[V:1] [M:5/8]G,G,/ z/ G,G,F, | 
[V:2] [M:5/8]z G,, z G,, z | 
[V:1] [M:6/8]=D,D,C,/ z/ D,C,C, | 
[V:2] [M:6/8]G,, z G,, z G,, z | 
[V:1] [M:3/4]C,4z2 ||  
[V:2] [M:3/4]G,, z G,, z G,, z ||  
[V:1]  [K:F] [M:2/4]A,G, G,/G,/F, | 
[V:2]  [K:F] [M:2/4]G,, z G,, z | 
[V:1] [M:5/8]A,G,G,/G,/F,C, | 
[V:2] [M:5/8]G,, z G,, z G,, | 
[V:1] F,F,/ z/ F,G,F, | 
[V:2] z G,, z G,, z | 
[V:1] [M:7/8]F,4z z F, :|]  
[V:2] [M:7/8]G,, z G,, z G,, z G,, :|]  
[V:1] [M:5/8]F,4F,/ z/ |]  
[V:2] [M:5/8]G,, z G,, z G,, |]  



